public/assets/wave2.svg

<svg viewBox="0 0 1436 847" fill="none" xmlns="http://www.w3.org/2000/svg">
<path opacity="0.3" d="M508.611 -7.34053L-2 -0.5L-72.5619 735.057C-41.6564 766.605 9.84375 832.928 120.317 837.212C256.478 842.491 314.746 796.41 399.311 741.972C483.876 687.534 641.609 659.927 770.667 747.221C879.124 820.58 955.657 829.446 1033.97 799.443C1104.23 772.522 1121.94 721.793 1225.05 752.908C1304.54 776.893 1324.69 760.018 1359.2 729.655C1403.16 690.969 1425.58 701.201 1432.43 701.518C1418.54 694.631 1401.72 698.625 1379.32 706.742C1344.82 719.242 1319.32 718.242 1288.82 701.518C1258.32 684.794 1248.67 649.967 1193.82 631.242C1138.58 612.384 1095.18 629.469 1042.82 618.242C972.356 603.134 917.817 526.811 917.817 377.242C917.817 171.964 788.278 124.395 655.347 107.858C558.539 95.8146 517.187 26.0409 508.611 -7.34053Z" fill="black"/>
</svg>

<svg viewBox="0 0 1436 847" fill="none" xmlns="http://www.w3.org/2000/svg"><path opacity=".3" d="M508.61-7.34L-2-.5l-70.56 735.56c30.9 31.55 82.4 97.87 192.88 102.15 136.16 5.28 194.43-40.8 279-95.24 84.56-54.44 242.29-82.04 371.35 5.25 108.45 73.36 184.99 82.23 263.3 52.22 70.26-26.92 87.97-77.65 191.08-46.53 79.49 23.98 99.64 7.1 134.15-23.25 43.96-38.7 66.38-28.46 73.23-28.14-13.89-6.89-30.71-2.9-53.11 5.22-34.5 12.5-60 11.5-90.5-5.22-30.5-16.73-40.15-51.55-95-70.28-55.24-18.86-98.64-1.77-151-13-70.46-15.1-125-91.43-125-241 0-205.28-129.54-252.85-262.47-269.38C558.54 95.8 517.19 26.04 508.6-7.34z" fill="#000"/></svg>
